X: 30032
M: C
L: 1/8
K: C
c2c2 d2cB | c4 z2d2 | e2e2 f2ed | e4 z2cd |\
e2e2 d3B | c2cc B3G | A2f2 e2d2 | c4 z2 |]
cd |\
e2e2 f2ed | e4 z2cd | e2e2 f2ed | e4 z2cd |\
e2e2 d3B | c2cc B3G | A2f2 e2d2 | c4 z2 |]


